src/assets/images/content/download.svg

<svg xmlns="http://www.w3.org/2000/svg" viewBox="-64 0 512 512">
  <path
    d="m336.335938 0h-224.933594c-3.980469 0-7.792969 1.582031-10.605469 4.394531l-96.402344 96.398438c-2.8125 2.8125-4.394531 6.628906-4.394531 10.605469v353.46875c0 25.988281 21.144531 47.132812 47.132812 47.132812h289.203126c25.914062 0 47.132812-20.953125 47.132812-47.132812v-417.734376c0-25.914062-20.953125-47.132812-47.132812-47.132812zm0 0"
    fill="#eff6fe"/>
  <path
    d="m383.464844 47.128906v417.742188c0 26.179687-21.210938 47.128906-47.128906 47.128906h-144.601563v-512h144.601563c26.179687 0 47.128906 21.21875 47.128906 47.128906zm0 0"
    fill="#d9e4ef"/>
  <path
    d="m95.335938 112.46875c9.445312 0 17.132812-7.6875 17.132812-17.132812v-95.335938h-1.070312c-3.976563 0-7.792969 1.582031-10.605469 4.394531l-96.398438 96.398438c-2.8125 2.8125-4.394531 6.628906-4.394531 10.605469v1.070312zm0 0"
    fill="#d9e4ef"/>
  <path
    d="m256 385.601562h-128.53125c-8.285156 0-15 6.714844-15 15 0 8.28125 6.714844 15 15 15h128.53125c8.285156 0 15-6.71875 15-15 0-8.285156-6.714844-15-15-15zm0 0"
    fill="#F28F27"/>
  <path
    d="m181.128906 346.9375c2.929688 2.929688 6.765625 4.394531 10.605469 4.394531 3.835937 0 7.675781-1.464843 10.605469-4.394531l64.265625-64.265625c5.859375-5.855469 5.859375-15.355469 0-21.210937-5.855469-5.859376-15.351563-5.859376-21.210938 0l-38.660156 38.660156v-108.386719c0-8.285156-6.714844-15-15-15s-15 6.714844-15 15v108.386719l-38.660156-38.660156c-5.855469-5.859376-15.355469-5.859376-21.214844 0-5.855469 5.855468-5.855469 15.355468 0 21.210937zm0 0"
    fill="#4D7AA9"/>
</svg>

<svg xmlns="http://www.w3.org/2000/svg" viewBox="-64 0 512 512"><path fill="#eff6fe" d="M336.336 0H111.402c-3.98 0-7.793 1.582-10.605 4.395L4.395 100.793A15.003 15.003 0 0 0 0 111.398v353.47C0 490.854 21.145 512 47.133 512h289.203c25.914 0 47.133-20.953 47.133-47.133V47.133C383.469 21.219 362.516 0 336.336 0zm0 0"/><path fill="#d9e4ef" d="M383.465 47.129V464.87c0 26.18-21.211 47.129-47.13 47.129h-144.6V0h144.6c26.18 0 47.13 21.219 47.13 47.129zM95.336 112.469c9.445 0 17.133-7.688 17.133-17.133V0h-1.07a15.003 15.003 0 0 0-10.606 4.395L4.395 100.793A15.003 15.003 0 0 0 0 111.398v1.07zm0 0"/><path fill="#F28F27" d="M256 385.602H127.469c-8.285 0-15 6.714-15 15 0 8.28 6.715 15 15 15H256c8.285 0 15-6.72 15-15 0-8.286-6.715-15-15-15zm0 0"/><path fill="#4D7AA9" d="M181.129 346.938a14.948 14.948 0 0 0 10.605 4.394c3.836 0 7.676-1.465 10.606-4.395l64.265-64.265c5.86-5.856 5.86-15.356 0-21.211-5.855-5.86-15.351-5.86-21.21 0l-38.66 38.66V191.734c0-8.285-6.715-15-15-15s-15 6.715-15 15v108.387l-38.66-38.66c-5.856-5.86-15.356-5.86-21.216 0-5.855 5.855-5.855 15.355 0 21.21zm0 0"/></svg>
